common/src/main/resources/icons/ide/hectorSyntax.svg

<!--
  - The MIT License (MIT)
  -
  - Copyright (c) 2015-2024 Elior "Mallowigi" Boukhobza
  -
  - Permission is hereby granted, free of charge, to any person obtaining a copy
  - of this software and associated documentation files (the "Software"), to deal
  - in the Software without restriction, including without limitation the rights
  - to use, copy, modify, merge, publish, distribute, sublicense, and/or sell
  - copies of the Software, and to permit persons to whom the Software is
  - furnished to do so, subject to the following conditions:
  -
  - The above copyright notice and this permission notice shall be included in all
  - copies or substantial portions of the Software.
  -
  - THE SOFTWARE IS PROVIDED "AS IS", WITHOUT WARRANTY OF ANY KIND, EXPRESS OR
  - IMPLIED, INCLUDING BUT NOT LIMITED TO THE WARRANTIES OF MERCHANTABILITY,
  - FITNESS FOR A PARTICULAR PURPOSE AND NONINFRINGEMENT. IN NO EVENT SHALL THE
  - AUTHORS OR COPYRIGHT HOLDERS BE LIABLE FOR ANY CLAIM, DAMAGES OR OTHER
  - LIABILITY, WHETHER IN AN ACTION OF CONTRACT, TORT OR OTHERWISE, ARISING FROM,
  - OUT OF OR IN CONNECTION WITH THE SOFTWARE OR THE USE OR OTHER DEALINGS IN THE
  - SOFTWARE.
  -->
<svg data-big="true" xmlns="http://www.w3.org/2000/svg" width="16" height="16" viewBox="0 0 16 16">
  <g fill="none" fill-rule="evenodd">
    <path fill="#6E6E6E" data-themed="true"
          d="M12,9 L12,9.89999992 C12,10.7339472 11.6354182,11.4827419 11.0569463,11.9956923 C12.9437897,12.533418 13.4,13.5339835 13.4,14 L2.6,14 C2.6,13.4997017 3.12579999,12.383315 5.38307629,11.8849325 C4.53973431,11.2067678 4,10.1664148 4,9.00000011 L4,7.12727284 C4,7.09153759 4.0005066,7.05592066 4.00151302,7.02042885 C4.0005059,6.96223779 4,6.90118551 4,6.83703636 L4,6 L2,6 L2,4.8 L4,4.8 L4,3.43569091 C4,2.58874812 4.08818433,2.2816262 4.25377607,1.97199657 C4.4193678,1.66236694 4.66236694,1.4193678 4.97199657,1.25377607 C5.2816262,1.08818433 5.58874812,1 6.43569091,1 L9.56430909,1 C10.4112519,1 10.7183738,1.08818433 11.0280034,1.25377607 C11.3376331,1.4193678 11.5806322,1.66236694 11.7462239,1.97199657 C11.9118157,2.2816262 12,2.58874812 12,3.43569091 L12,4.8 L14,4.8 L14,6 L12,6 L12,6.83703636 C12,6.90118551 11.9994941,6.96223779 11.998487,7.02042885 C11.9994934,7.05592066 12,7.09153759 12,7.12727284 L12,7.6 L11.2,7.6 L11.2,6 L4.8,6 L4.8,8.85000016 C4.8,10.5344686 6.16553149,11.9000001 7.84999995,11.9000001 L9.05000014,11.9000001 C10.2374123,11.9000001 11.2,10.9374124 11.2,9.75000026 L11.2,9 L12,9 Z"/>
    <circle cx="9.1" cy="7.7" r="0.7" fill="#6E6E6E" data-themed="true"/>
    <path fill="#6E6E6E" data-themed="true"
          d="M8.94247506,9.93702512 L9.45752494,9.46297488 C9.82274297,9.85977988 10.2291136,10.05 10.6954224,10.05 C10.9868929,10.05 11.2537181,9.9759649 11.5026259,9.82609224 L11.8637078,10.4257754 C11.5057251,10.6413243 11.114054,10.75 10.6954224,10.75 C10.0268716,10.75 9.436294,10.4735535 8.94247506,9.93702512 Z"/>
    <polygon fill="#6E6E6E" data-themed="true" points="4 6 8 6 4.765 9.98 4 9"/>
    <path fill="#6E6E6E" data-themed="true"
          d="M11.2,8.98529412 L12,8.75 L11.203333,7.8 L11.2,7.8 L11.2,7.6 L12,7.6 L12.75,8.6 L12.75,9.2 L11.903333,9.5 L11.2,9.5 L11.2,8.98529412 Z"/>
  </g>
</svg>

<svg xmlns="http://www.w3.org/2000/svg" width="16" height="16" data-big="true"><g fill="#6E6E6E" fill-rule="evenodd"><path d="M12 9v.9c0 .834-.365 1.583-.943 2.096 1.887.537 2.343 1.538 2.343 2.004H2.6c0-.5.526-1.617 2.783-2.115A3.7 3.7 0 0 1 4 9V7.127q0-.053.002-.107L4 6.837V6H2V4.8h2V3.436c0-.847.088-1.154.254-1.464.165-.31.408-.553.718-.718.31-.166.617-.254 1.464-.254h3.128c.847 0 1.154.088 1.464.254.31.165.553.408.718.718.166.31.254.617.254 1.464V4.8h2V6h-2v.837q0 .096-.002.183l.002.107V7.6h-.8V6H4.8v2.85a3.05 3.05 0 0 0 3.05 3.05h1.2a2.15 2.15 0 0 0 2.15-2.15V9z" data-themed="true"/><circle cx="9.1" cy="7.7" r=".7" data-themed="true"/><path d="m8.942 9.937.516-.474c.365.397.771.587 1.237.587q.436 0 .808-.224l.36.6a2.23 2.23 0 0 1-1.168.324c-.668 0-1.259-.276-1.753-.813M4 6h4L4.765 9.98 4 9zM11.2 8.985l.8-.235-.797-.95H11.2v-.2h.8l.75 1v.6l-.847.3H11.2z" data-themed="true"/></g></svg>
